src/assets/outline/Wifi.svg

<svg width="24" height="24" viewBox="0 0 24 24"  xmlns="http://www.w3.org/2000/svg">
<path d="M19.0899 12.5904C18.9299 12.5904 18.7699 12.5404 18.6299 12.4304C14.5999 9.32038 9.38993 9.32038 5.35993 12.4304C5.02993 12.6804 4.55993 12.6204 4.30993 12.3004C4.05993 11.9704 4.11994 11.5004 4.43994 11.2504C9.02994 7.70039 14.9599 7.70039 19.5399 11.2504C19.8699 11.5004 19.9299 11.9704 19.6699 12.3004C19.5399 12.4904 19.3199 12.5904 19.0899 12.5904Z" />
<path d="M22 9.11039C21.84 9.11039 21.68 9.06041 21.54 8.95041C15.74 4.47041 8.25004 4.47041 2.46004 8.95041C2.13004 9.20041 1.66003 9.14041 1.41003 8.82041C1.16003 8.49041 1.22002 8.02039 1.54002 7.77039C7.89002 2.86039 16.1 2.86039 22.46 7.77039C22.79 8.02039 22.85 8.49041 22.59 8.82041C22.45 9.01041 22.22 9.11039 22 9.11039Z" />
<path d="M17.2101 16.2403C17.0501 16.2403 16.8901 16.1903 16.7501 16.0803C13.8701 13.8503 10.1401 13.8503 7.25007 16.0803C6.92007 16.3303 6.45007 16.2703 6.20007 15.9503C5.95007 15.6203 6.01007 15.1503 6.33007 14.9003C9.77007 12.2403 14.2201 12.2403 17.6601 14.9003C17.9901 15.1503 18.0501 15.6203 17.7901 15.9503C17.6501 16.1403 17.4301 16.2403 17.2101 16.2403Z" />
<path d="M14.6002 19.9005C14.4402 19.9005 14.2802 19.8505 14.1402 19.7405C12.8402 18.7305 11.1502 18.7305 9.85017 19.7405C9.52017 19.9905 9.05017 19.9305 8.80017 19.6105C8.55017 19.2805 8.61016 18.8105 8.93016 18.5605C10.7902 17.1205 13.1902 17.1205 15.0502 18.5605C15.3802 18.8105 15.4402 19.2805 15.1802 19.6105C15.0502 19.7905 14.8302 19.9005 14.6002 19.9005Z" />
</svg>

<?xml version="1.0" encoding="UTF-8"?>
<svg width="24" height="24" viewBox="0 0 24 24" xmlns="http://www.w3.org/2000/svg">
 <path d="m19.09 12.59c-0.16 0-0.32-0.05-0.46-0.16-4.03-3.11-9.24-3.11-13.27 0-0.33 0.25-0.8 0.19-1.05-0.13-0.25-0.33-0.18999-0.8 0.13001-1.05 4.59-3.55 10.52-3.55 15.1 0 0.33 0.25 0.39 0.72 0.13 1.05-0.13 0.19-0.35 0.29-0.58 0.29z"/>
 <path d="m22 9.1104c-0.16 0-0.32-0.04998-0.46-0.15998-5.8-4.48-13.29-4.48-19.08 0-0.33 0.25-0.80001 0.19-1.05-0.13-0.25-0.33-0.19001-0.80002 0.12999-1.05 6.35-4.91 14.56-4.91 20.92 0 0.33 0.25 0.39 0.72002 0.13 1.05-0.14 0.19-0.37 0.28998-0.59 0.28998z"/>
 <path d="m17.21 16.24c-0.16 0-0.32-0.05-0.46-0.16-2.88-2.23-6.61-2.23-9.5 0-0.33 0.25-0.8 0.19-1.05-0.13-0.25-0.33-0.19-0.8 0.13-1.05 3.44-2.66 7.89-2.66 11.33 0 0.33 0.25 0.39 0.72 0.13 1.05-0.14 0.19-0.36 0.29-0.58 0.29z"/>
 <path d="m14.6 19.9c-0.16 0-0.32-0.05-0.46-0.16-1.3-1.01-2.99-1.01-4.29 0-0.33 0.25-0.8 0.19-1.05-0.13-0.25-0.33-0.19001-0.8 0.12999-1.05 1.86-1.44 4.26-1.44 6.12 0 0.33 0.25 0.39 0.72 0.13 1.05-0.13 0.18-0.35 0.29-0.58 0.29z"/>
</svg>
